X:150
T:Lord Monk's March,The. (p)1657.PLFD.151
M:4/4
L:1/8
Q:1/2=100
S:Playford, Dancing Master,Supplement to 3rd Ed.,1657
O:England
H:1657.
Z:Chris Partington.
K:F
FD3F4|cA3c4|Ac(dc) A2(GF)|(EF)(GF)E2(DC)|
FD3F3d|cA3f4|e4d^c(de)|^c(A3A4):|
|:f4a4|f3c (dc)(AF)|G4d4|G6(AB)|(cd)(cA)c3A|
(GE)CEG3E|(FG)(FD) (cd)(cA)|F(D3D4):|
